X: 9656
T: Dayne Thomas's
R: slide
M: 12/8
K: Adorian
|:A2B c2d e2f gfe|d2 B BAB G2A BAG|
A2B c2d e2f gfe|d2 B gdB BAG A3:|
a2e ede a2e ede|g2B BAB g3 efg|
a2e ede a2e ede|EFG BAG A3 efg|
a2e ede a2e ede|g2B BAB g3 efg|
agf gfe fed edB|EFG BAG A3 A2 z||

